X:1
T:My Mother Has Gone on Home
T:My Mother Has Gone on Home
T:Charles Albert Brock
T:Virginia Conway, 1918
T:Public Domain Courtesy of the Cyber Hymnal™
T:Public Domain Courtesy of the Cyber Hymnal™
C:Charles Albert Brock
Z:Public Domain
Z:Courtesy of the Cyber Hymnal™
%%score ( 1 2 ) ( 3 4 )
L:1/8
Q:1/4=125
M:3/4
K:C
V:1 treble 
V:2 treble 
V:3 bass 
V:4 bass 
V:1
 [EG]2 | [EG]2 [EG]2 [EG]2 | G4 [FG]2 | [EG]4 [DG]2 | [Ec]2 [Ec]2 [Ec]2 | G4 [Gc]2 | [Gd]4 [Ec]2 | %7
w: 1.~My|mo- ther has|gone on|home, And|I am so|lone- ly|here; There’s|
w: 2.~How|dark seem the|days to|me, The|sun now for-|gets to|shine On|
w: 3.~I|miss her dear|smil- ing|face, Wher-|ev- er my|foot- steps|roam; I’m|
 [Ge]2 [Ge]2 [Ge]2 | [Ac]4 [FA]2 | [EG]4 [CE]2 | [CG]2 [CG]2 [CG]2 | [CE]4 [B,D]2 | !fermata!C4 || %13
w: no- thing that|seems the|same, Since|she is no|long- er|near.|
w: me, as in|days of|yore, For|mo- ther in|vain I|pine!|
w: long- ing for|Heav’n a-|bove, Since|mo- ther has|gone on|home.|
[M:4/4][Q:1/4=75] (3[CE][CE][DF] | [EG][EG][EG][EG] [EG][FA] (3[EG][EG][EA] | %15
w: ||
w: Beau- ti- ful|mo- ther, gone for- ev- er, Wait- ing be-|
w: ||
 [Ec][Ec][Ec][Ec] [Ge][Ec] (3[Fc][Fc][Fc] | [DG][DG][EG][EG] [EG][EG] (3[EA][EG][CE] | %17
w: ||
w: side life’s crys- tal riv- er For the glad|com- ing home of friends She cher- ished while|
w: ||
 [B,D]6 (3[CE][CE][DF] | [EG][EG][EG][EG] [FA][EG] (3[EG][EG][EA] | %19
w: ||
w: here; Beau- ti- ful|mo- ther, free from sor- row, Where I shall|
w: ||
 [Ec][Ec][Ec][Ec] [Ge][Ec] (3[Ac][Ac][Ac] | [Ge][Ge][ce][Ae] [Ge][Gc] (3[Fd][Fd][Fd] | c6 |] %22
w: |||
w: join her on the mor- row, Ne- ver a-|gain the sol- emn hour Of part- ing to|fear!|
w: |||
V:2
 x2 | x6 | (E2 D2) x2 | x6 | x6 | (E2 F2) x2 | x6 | x6 | x6 | x6 | x6 | x6 | C4 ||[M:4/4] x2 | x8 | %15
 x8 | x8 | x8 | x8 | x8 | x8 | (EE(3^DEF E2) |] %22
V:3
 [C,C]2 | [C,C]2 [C,C]2 [C,C]2 | C2 B,2 [G,,D]2 | [C,C]4 [B,,D]2 | [A,,C]2 [A,,C]2 [A,,C]2 | %5
 [C,C]2 [D,B,]2 [E,C]2 | [G,B,]4 [C,C]2 | [C,C]2 [C,C]2 [C,C]2 | [F,C]4 [F,C]2 | [C,C]4 [C,G,]2 | %10
 [C,E,]2 [C,E,]2 [E,G,]2 | G,4 [G,,F,]2 | !fermata![C,E,]4 ||[M:4/4] (3[C,G,][C,G,][C,G,] | %14
 [C,C][C,C][C,C][C,C] [C,C][C,C] (3[C,C][C,C][C,C] | %15
 [C,G,][C,G,][C,G,][C,G,] [C,C][C,G,] (3[F,A,][F,A,][F,A,] | %16
 [G,B,][G,B,][E,B,][E,B,] [C,C][C,C] (3[C,C][C,C][C,G,] | %17
 ([G,,G,][G,,G,](3[G,,G,][G,,G,][G,,G,] [G,,G,]2) (3[C,G,][C,G,][C,G,] | %18
 [C,C][C,C][C,C][C,C] [C,C][C,C] (3[C,C][C,C][C,C] | %19
 [C,G,][C,G,][C,G,][C,G,] [C,C][C,C] (3[F,C][F,C][F,C] | %20
 [G,C][G,C][A,C][A,C] [E,C][E,C] (3[G,B,][G,B,][G,B,] | (CG,(3^F,G,A, G,2) |] %22
V:4
 x2 | x6 | G,4 x2 | x6 | x6 | x6 | x6 | x6 | x6 | x6 | x6 | G,4 x2 | x4 ||[M:4/4] x2 | x8 | x8 | %16
 x8 | x8 | x8 | x8 | x8 | C,6 |] %22

